apps/app.mento.org/public/tokens/CHFm.svg

<svg width="220" height="220" viewBox="0 0 220 220" fill="none" xmlns="http://www.w3.org/2000/svg">
<path d="M110 220C170.751 220 220 170.751 220 110C220 49.2487 170.751 0 110 0C49.2487 0 0 49.2487 0 110C0 170.751 49.2487 220 110 220Z" fill="#510DC1"/>
<path d="M110 23C158.049 23 197 61.9512 197 110C197 158.049 158.049 197 110 197C61.9512 197 23 158.049 23 110C23 61.9512 61.9512 23 110 23Z" stroke="url(#paint0_linear_2057_385)" stroke-width="36"/>
<path d="M110 202C160.81 202 202 160.81 202 110C202 59.1898 160.81 18 110 18C59.1898 18 18 59.1898 18 110C18 160.81 59.1898 202 110 202Z" fill="#510DC1"/>
<path d="M156 69.1426H100.8V94.8555H146.8V111.998H100.8V137.718H119.199V154.86H100.8V172H82.4004V154.86H63.999V137.718H82.4004V52H156V69.1426Z" fill="url(#paint1_linear_2057_385)"/>
<defs>
<linearGradient id="paint0_linear_2057_385" x1="215" y1="110" x2="5" y2="110" gradientUnits="userSpaceOnUse">
<stop stop-color="#FF0000"/>
<stop offset="0.5" stop-color="white"/>
<stop offset="1" stop-color="#FF0000"/>
</linearGradient>
<linearGradient id="paint1_linear_2057_385" x1="110" y1="52" x2="110" y2="172" gradientUnits="userSpaceOnUse">
<stop stop-color="#E2DBFF"/>
<stop offset="0.975962" stop-color="#FBFAFF"/>
</linearGradient>
</defs>
</svg>

<svg xmlns="http://www.w3.org/2000/svg" width="220" height="220" fill="none" viewBox="0 0 220 220"><path fill="#510dc1" d="M110 220c60.751 0 110-49.249 110-110S170.751 0 110 0 0 49.249 0 110s49.249 110 110 110"/><path stroke="url(#a)" stroke-width="36" d="M110 23c48.049 0 87 38.951 87 87s-38.951 87-87 87-87-38.951-87-87 38.951-87 87-87Z"/><path fill="#510dc1" d="M110 202c50.81 0 92-41.19 92-92s-41.19-92-92-92-92 41.19-92 92 41.19 92 92 92"/><path fill="url(#b)" d="M156 69.143h-55.2v25.713h46v17.142h-46v25.72h18.399v17.142H100.8V172H82.4v-17.14H64v-17.142h18.4V52H156z"/><defs><linearGradient id="a" x1="215" x2="5" y1="110" y2="110" gradientUnits="userSpaceOnUse"><stop stop-color="red"/><stop offset=".5" stop-color="#fff"/><stop offset="1" stop-color="red"/></linearGradient><linearGradient id="b" x1="110" x2="110" y1="52" y2="172" gradientUnits="userSpaceOnUse"><stop stop-color="#e2dbff"/><stop offset=".976" stop-color="#fbfaff"/></linearGradient></defs></svg>
